src/assets/elements/add-api-element.svg

<?xml version="1.0" encoding="UTF-8" standalone="no"?>
<!-- Created with Inkscape (http://www.inkscape.org/) -->

<svg
   width="34"
   height="34"
   viewBox="0 0 8.995833 8.995833"
   version="1.1"
   id="svg13002"
   inkscape:version="1.2 (dc2aeda, 2022-05-15)"
   sodipodi:docname="add-api-element.svg"
   xmlns:inkscape="http://www.inkscape.org/namespaces/inkscape"
   xmlns:sodipodi="http://sodipodi.sourceforge.net/DTD/sodipodi-0.dtd"
   xmlns="http://www.w3.org/2000/svg"
   xmlns:svg="http://www.w3.org/2000/svg">
  <sodipodi:namedview
     id="namedview13004"
     pagecolor="#ffffff"
     bordercolor="#000000"
     borderopacity="0.25"
     inkscape:showpageshadow="2"
     inkscape:pageopacity="0.0"
     inkscape:pagecheckerboard="0"
     inkscape:deskcolor="#d1d1d1"
     inkscape:document-units="mm"
     showgrid="false"
     inkscape:zoom="21.523008"
     inkscape:cx="19.72308"
     inkscape:cy="19.026151"
     inkscape:window-width="1390"
     inkscape:window-height="1151"
     inkscape:window-x="2121"
     inkscape:window-y="217"
     inkscape:window-maximized="0"
     inkscape:current-layer="layer1" />
  <defs
     id="defs12999" />
  <g
     inkscape:label="Layer 1"
     inkscape:groupmode="layer"
     id="layer1">
    <circle
       style="fill:#514964;fill-opacity:1;stroke:none;stroke-width:0.501789;stroke-linecap:round;stroke-dasharray:none;stroke-opacity:1"
       id="path11295"
       cx="4.4979167"
       cy="4.4979167"
       r="3.96875" />
    <path
       style="fill:#514964;stroke:#ffffff;stroke-width:0.264583;stroke-linecap:round;stroke-dasharray:none"
       d="M 6.1219369,2.4900513 4.253394,4.6216197"
       id="path23361"
       sodipodi:nodetypes="cc" />
    <path
       style="fill:none;stroke:#ffffff;stroke-width:0.264583;stroke-linecap:round;stroke-dasharray:none"
       d="M 4.3634656,3.5024271 H 2.9386038 V 6.3789224 H 5.8221835 V 5.0064211"
       id="path23419"
       sodipodi:nodetypes="ccccc" />
    <path
       style="fill:none;stroke:#ffffff;stroke-width:0.264583;stroke-linecap:round;stroke-dasharray:none"
       d="M 4.253394,4.6216196 4.1211023,5.4206676 4.8434601,5.223979 6.7611754,3.0358168 6.1219369,2.4900513"
       id="path24898"
       sodipodi:nodetypes="ccccc" />
  </g>
</svg>

<svg width="34" height="34" version="1.1" viewBox="0 0 8.9958 8.9958" xmlns="http://www.w3.org/2000/svg">
 <circle cx="4.4979" cy="4.4979" r="3.9688" fill="#514964"/>
 <g stroke="#fff" stroke-linecap="round" stroke-width=".26458">
  <path d="m6.1219 2.4901-1.8685 2.1316" fill="#514964"/>
  <path d="m4.3635 3.5024h-1.4249v2.8765h2.8836v-1.3725" fill="none"/>
  <path d="m4.2534 4.6216-0.13229 0.79905 0.72236-0.19669 1.9177-2.1882-0.63924-0.54577" fill="none"/>
 </g>
</svg>
